X: 26434
T: Merry Sisters, The
R: reel
M: 4/4
K: Adorian
dB|eA A2 A2 Bd|eafd e2 dB|gG G2 BGBd|egfd e2 dB|
eA A2 A2 Bd|eafd e2 dB|gG G2 BGBd|eaag e2 ed||
eaaB cBcd|eaag edef|gG G2 BGBd|eaag e2 ed|
eaaB cBcd|edef gfga|bgaf gfed|egfd e2||

